icons/src/scalable/default/places/start-here-symbolic.svg

<?xml version="1.0" encoding="UTF-8" standalone="no"?>
<svg
   height="16.000002"
   id="svg7384"
   version="1.1"
   width="16"
   sodipodi:docname="start-here-symbolic.svg"
   inkscape:version="1.1.2 (76b9e6a115, 2022-02-25)"
   xmlns:inkscape="http://www.inkscape.org/namespaces/inkscape"
   xmlns:sodipodi="http://sodipodi.sourceforge.net/DTD/sodipodi-0.dtd"
   xmlns="http://www.w3.org/2000/svg"
   xmlns:svg="http://www.w3.org/2000/svg"
   xmlns:rdf="http://www.w3.org/1999/02/22-rdf-syntax-ns#"
   xmlns:cc="http://creativecommons.org/ns#"
   xmlns:dc="http://purl.org/dc/elements/1.1/">
  <sodipodi:namedview
     pagecolor="#ffffff"
     bordercolor="#666666"
     borderopacity="1"
     objecttolerance="10"
     gridtolerance="10"
     guidetolerance="10"
     inkscape:pageopacity="0"
     inkscape:pageshadow="2"
     inkscape:window-width="1920"
     inkscape:window-height="1016"
     id="namedview21"
     showgrid="true"
     inkscape:zoom="4"
     inkscape:cx="-23.875"
     inkscape:cy="11.375"
     inkscape:window-x="0"
     inkscape:window-y="27"
     inkscape:window-maximized="1"
     inkscape:current-layer="svg7384"
     inkscape:pagecheckerboard="0"
     showborder="false">
    <inkscape:grid
       type="xygrid"
       id="grid846" />
  </sodipodi:namedview>
  <metadata
     id="metadata20854">
    <rdf:RDF>
      <cc:Work
         rdf:about="">
        <dc:format>image/svg+xml</dc:format>
        <dc:type
           rdf:resource="http://purl.org/dc/dcmitype/StillImage" />
      </cc:Work>
    </rdf:RDF>
  </metadata>
  <defs
     id="defs7386">
    <linearGradient
       id="linearGradient5606"
       inkscape:swatch="solid">
      <stop
         id="stop5608"
         offset="0"
         style="stop-color:#000000;stop-opacity:1;" />
    </linearGradient>
    <linearGradient
       id="linearGradient4526"
       inkscape:swatch="solid">
      <stop
         id="stop4528"
         offset="0"
         style="stop-color:#ffffff;stop-opacity:1;" />
    </linearGradient>
    <linearGradient
       id="linearGradient3600-4"
       inkscape:swatch="gradient">
      <stop
         id="stop3602-7"
         offset="0"
         style="stop-color:#f4f4f4;stop-opacity:1" />
      <stop
         id="stop3604-6"
         offset="1"
         style="stop-color:#dbdbdb;stop-opacity:1" />
    </linearGradient>
  </defs>
  <g
     id="layer9"
     label="status"
     style="display:inline"
     transform="translate(-593.0002,307)" />
  <g
     id="layer4"
     transform="translate(-352,-60)" />
  <g
     id="g1812"
     style="display:inline"
     transform="translate(-352,-60)" />
  <g
     id="g6217"
     transform="translate(-352,-60)" />
  <g
     id="layer3"
     style="display:inline"
     transform="translate(-352,-60)" />
  <g
     id="g1833"
     style="display:inline"
     transform="translate(-352,-60)" />
  <g
     id="layer1"
     transform="translate(-352,-60)" />
  <path
     style="fill:#808080;stroke-width:1"
     d="m 10.175781,10.550781 a 1.675,1.675 0 0 1 1.673828,1.673828 1.675,1.675 0 0 1 -1.673828,1.675782 1.675,1.675 0 0 1 -1.675781,-1.675782 1.675,1.675 0 0 1 1.675781,-1.673828 z"
     id="path34" />
  <path
     style="fill:#808080;stroke-width:1"
     d="m 4.5898438,10.085938 a 4.04,4.04 0 0 0 2.7753906,2.125 1.445,1.445 0 0 0 0.4101562,0.06445 2.355,2.355 0 0 0 0.5,1.40039 5.5,5.5 0 0 1 -1.1855468,-0.125 5.435,5.435 0 0 1 -3.9257813,-3.291015 2.415,2.415 0 0 0 1.4257813,-0.173828 z"
     id="path32" />
  <path
     style="fill:#808080;stroke-width:1"
     d="m 3.5898438,6.234375 a 1.675,1.675 0 0 1 1.6757812,1.6757812 1.675,1.675 0 0 1 -1.6757812,1.6757813 1.675,1.675 0 0 1 -1.6757813,-1.6757813 1.675,1.675 0 0 1 1.6757813,-1.6757812 z"
     id="path30" />
  <path
     style="fill:#808080;stroke-width:1"
     d="m 12.775391,5.1992188 a 5.5,5.5 0 0 1 -0.275391,6.4160152 2.29,2.29 0 0 0 -0.800781,-1.240234 4.04,4.04 0 0 0 0.52539,-1.3007812 4.11,4.11 0 0 0 -0.388671,-2.7734376 2.425,2.425 0 0 0 0.939453,-1.1015624 z"
     id="path28" />
  <path
     style="fill:#808080;stroke-width:1"
     d="m 8.1191406,2.7402344 a 5.5,5.5 0 0 1 0.515625,0.015625 2.315,2.315 0 0 0 -0.4589844,0.9746094 3.21,3.21 0 0 0 -0.050781,0.375 4.06,4.06 0 0 0 -3.2890625,1.7597656 2.42,2.42 0 0 0 -0.7617187,-0.3144532 2.325,2.325 0 0 0 -0.5,-0.050781 h -0.125 a 5.5,5.5 0 0 1 4.6699218,-2.7597656 z"
     id="path26" />
  <path
     style="fill:#808080;stroke-width:1"
     d="m 10.550781,2.5644531 a 1.675,1.675 0 0 1 1.673828,1.6757813 1.675,1.675 0 0 1 -1.673828,1.6738281 1.675,1.675 0 0 1 -1.675781,-1.6738281 1.675,1.675 0 0 1 1.675781,-1.6757813 z"
     id="path24" />
</svg>

<?xml version="1.0" encoding="UTF-8" standalone="no"?>
<svg
   height="16.000002"
   id="svg7384"
   version="1.1"
   width="16"
   sodipodi:docname="start-here-symbolic.svg"
   inkscape:version="1.1.2 (76b9e6a115, 2022-02-25)"
   xmlns:inkscape="http://www.inkscape.org/namespaces/inkscape"
   xmlns:sodipodi="http://sodipodi.sourceforge.net/DTD/sodipodi-0.dtd"
   xmlns="http://www.w3.org/2000/svg"
   xmlns:svg="http://www.w3.org/2000/svg"
   xmlns:rdf="http://www.w3.org/1999/02/22-rdf-syntax-ns#"
   xmlns:cc="http://creativecommons.org/ns#"
   xmlns:dc="http://purl.org/dc/elements/1.1/">
  <sodipodi:namedview
     pagecolor="#ffffff"
     bordercolor="#666666"
     borderopacity="1"
     objecttolerance="10"
     gridtolerance="10"
     guidetolerance="10"
     inkscape:pageopacity="0"
     inkscape:pageshadow="2"
     inkscape:window-width="1920"
     inkscape:window-height="1043"
     id="namedview21"
     showgrid="false"
     inkscape:zoom="8"
     inkscape:cx="17.5625"
     inkscape:cy="10.75"
     inkscape:window-x="1920"
     inkscape:window-y="0"
     inkscape:window-maximized="1"
     inkscape:current-layer="svg7384"
     inkscape:pagecheckerboard="0"
     showborder="false">
    <inkscape:grid
       type="xygrid"
       id="grid846" />
  </sodipodi:namedview>
  <metadata
     id="metadata20854">
    <rdf:RDF>
      <cc:Work
         rdf:about="">
        <dc:format>image/svg+xml</dc:format>
        <dc:type
           rdf:resource="http://purl.org/dc/dcmitype/StillImage" />
      </cc:Work>
    </rdf:RDF>
  </metadata>
  <defs
     id="defs7386">
    <linearGradient
       id="linearGradient5606"
       inkscape:swatch="solid">
      <stop
         id="stop5608"
         offset="0"
         style="stop-color:#000000;stop-opacity:1;" />
    </linearGradient>
    <linearGradient
       id="linearGradient4526"
       inkscape:swatch="solid">
      <stop
         id="stop4528"
         offset="0"
         style="stop-color:#ffffff;stop-opacity:1;" />
    </linearGradient>
    <linearGradient
       id="linearGradient3600-4"
       inkscape:swatch="gradient">
      <stop
         id="stop3602-7"
         offset="0"
         style="stop-color:#f4f4f4;stop-opacity:1" />
      <stop
         id="stop3604-6"
         offset="1"
         style="stop-color:#dbdbdb;stop-opacity:1" />
    </linearGradient>
  </defs>
  <g
     id="layer9"
     label="status"
     style="display:inline"
     transform="translate(-593.0002,307)" />
  <g
     id="layer4"
     transform="translate(-352,-60)" />
  <g
     id="g1812"
     style="display:inline"
     transform="translate(-352,-60)" />
  <g
     id="g6217"
     transform="translate(-352,-60)" />
  <g
     id="layer3"
     style="display:inline"
     transform="translate(-352,-60)" />
  <g
     id="g1833"
     style="display:inline"
     transform="translate(-352,-60)" />
  <g
     id="layer1"
     transform="translate(-352,-60)" />
  <path
     id="rect6"
     style="fill:#808080;stroke-width:1"
     class="cls-1"
     d="M 0 0 L 0 16 L 16 16 L 16 0 L 0 0 z M 10.550781 2.5644531 A 1.675 1.675 0 0 1 12.224609 4.2402344 A 1.675 1.675 0 0 1 10.550781 5.9140625 A 1.675 1.675 0 0 1 8.875 4.2402344 A 1.675 1.675 0 0 1 10.550781 2.5644531 z M 8.1191406 2.7402344 A 5.5 5.5 0 0 1 8.6347656 2.7558594 A 2.315 2.315 0 0 0 8.1757812 3.7304688 A 3.21 3.21 0 0 0 8.125 4.1054688 A 4.06 4.06 0 0 0 4.8359375 5.8652344 A 2.42 2.42 0 0 0 4.0742188 5.5507812 A 2.325 2.325 0 0 0 3.5742188 5.5 L 3.4492188 5.5 A 5.5 5.5 0 0 1 8.1191406 2.7402344 z M 12.775391 5.1992188 A 5.5 5.5 0 0 1 12.5 11.615234 A 2.29 2.29 0 0 0 11.699219 10.375 A 4.04 4.04 0 0 0 12.224609 9.0742188 A 4.11 4.11 0 0 0 11.835938 6.3007812 A 2.425 2.425 0 0 0 12.775391 5.1992188 z M 3.5898438 6.234375 A 1.675 1.675 0 0 1 5.265625 7.9101562 A 1.675 1.675 0 0 1 3.5898438 9.5859375 A 1.675 1.675 0 0 1 1.9140625 7.9101562 A 1.675 1.675 0 0 1 3.5898438 6.234375 z M 4.5898438 10.085938 A 4.04 4.04 0 0 0 7.3652344 12.210938 A 1.445 1.445 0 0 0 7.7753906 12.275391 A 2.355 2.355 0 0 0 8.2753906 13.675781 A 5.5 5.5 0 0 1 7.0898438 13.550781 A 5.435 5.435 0 0 1 3.1640625 10.259766 A 2.415 2.415 0 0 0 4.5898438 10.085938 z M 10.175781 10.550781 A 1.675 1.675 0 0 1 11.849609 12.224609 A 1.675 1.675 0 0 1 10.175781 13.900391 A 1.675 1.675 0 0 1 8.5 12.224609 A 1.675 1.675 0 0 1 10.175781 10.550781 z " />
</svg>
